icons/table-16.svg

<svg xmlns="http://www.w3.org/2000/svg" width="16" height="16" viewBox="0 0 16 16">
  <defs/>
  <path d="M0,1.75 C0,0.784 0.784,0 1.75,0 L14.25,0 C15.216,0 16,0.784 16,1.75 L16,14.25 C16,15.216 15.216,16 14.25,16 L1.75,16 C0.784,16 0,15.216 0,14.25 Z M6.5,6.5 L6.5,14.5 L14.25,14.5 C14.388,14.5 14.5,14.388 14.5,14.25 L14.5,6.5 Z M14.5,5 L14.5,1.75 C14.5,1.612 14.388,1.5 14.25,1.5 L6.5,1.5 L6.5,5 Z M1.5,6.5 L1.5,14.25 C1.5,14.388 1.612,14.5 1.75,14.5 L5,14.5 L5,6.5 Z M5,5 L5,1.5 L1.75,1.5 C1.612,1.5 1.5,1.612 1.5,1.75 L1.5,5 Z"/>
</svg>

<svg xmlns="http://www.w3.org/2000/svg" width="16" height="16" viewBox="0 0 16 16"><path fill-rule="evenodd" d="M0 1.75C0 .784.784 0 1.75 0h12.5C15.216 0 16 .784 16 1.75v12.5A1.75 1.75 0 0114.25 16H1.75A1.75 1.75 0 010 14.25V1.75zM1.5 6.5v7.75c0 .138.112.25.25.25H5v-8H1.5zM5 5H1.5V1.75a.25.25 0 01.25-.25H5V5zm1.5 1.5v8h7.75a.25.25 0 00.25-.25V6.5h-8zm8-1.5h-8V1.5h7.75a.25.25 0 01.25.25V5z"/></svg>
